!!!COM: Hayashi, Hiromori
!!!CDT: 1831-1896
!!!OTL: National Anthem, Japan
!!!ENC: Davis, Matthew J.
!!Vocal Line Only
**kern
*clefG2
*k[]
*X:
*M4/4
=1-
4d
4c
4d
4e
=2
4g
4e
2d
=3
4e
4g
4a
8g
8a
=4
4dd
4b
4a
4g
=5
4e
4g
2a
=6
4dd
4cc
2dd
=7
4e
4g
4a
4g
=8
4.e
8g
2d
=9
4a
4cc
2dd
=10
4cc
4dd
4a
4g
=11
4a
8g
8e
2d
==|!
*-
